X:472
T:The Oyster Wives' Rant
M:C
L:1/8
R:Reel
K:G
B|:"Am"e2 ed eAAB|"G"dedB GABd|"Am"e2 ed efge|"G"dBgB "Am"A/2A/2A A2:|
|:"Am"edef g2 fe|"G"dedB dedB|"Am"edef gage|"G"dBgB "Am"A/2A/2A A2:||

